X: 12
T: Morning Has Broken v.1
P: piffero primo a0135
O: traditional Irish
%R: air, slip-jig
F: http://ancients.sudburymuster.org/mus/col/pdf/hymnsF.pdf
Z: 2020 John Chambers <jc:trillian.mit.edu>
M: 9/8
L: 1/8
K: D
|:\
DFA d3 e3 | cBA B3 A3 | DEF A3 B3 | AGD E6 |\
AFA d3 B3 | AFD D3 E3 | FEF A3 B3 | EFE D6 :|


